docs/img/icons/like.svg

<svg width="70" height="70" viewBox="0 0 70 70" fill="none" xmlns="http://www.w3.org/2000/svg">
<path d="M47.3047 0C46.5497 0 45.9375 0.612227 45.9375 1.36719V7.65625C45.9375 8.41121 46.5497 9.02344 47.3047 9.02344C48.0596 9.02344 48.6719 8.41121 48.6719 7.65625V1.36719C48.6719 0.612227 48.0596 0 47.3047 0Z" fill="white"/>
<path d="M15.8594 42.6562C15.1047 42.6562 14.4922 43.2688 14.4922 44.0234C14.4922 44.7781 15.1047 45.3906 15.8594 45.3906C16.6141 45.3906 17.2266 44.7781 17.2266 44.0234C17.2266 43.2688 16.6141 42.6562 15.8594 42.6562Z" fill="white"/>
<path d="M66.4453 39.9219C66.4453 36.9064 63.992 34.4531 60.9766 34.4531H50.7702C52.3503 30.4058 52.9899 25.642 52.8665 21.4014C52.843 20.5922 52.812 20.1242 52.77 19.8296C52.6993 16.8755 50.2737 14.4922 47.3047 14.4922C44.2892 14.4922 41.8359 16.9455 41.8359 19.9609V21.3281C41.8359 29.975 30.7325 34.8333 22.353 36.9167C21.7194 35.4683 20.2732 34.4531 18.5938 34.4531H4.92188C4.16691 34.4531 3.55469 35.0654 3.55469 35.8203V68.6328C3.55469 69.3878 4.16691 70 4.92188 70H18.5938C20.262 70 21.6999 68.9983 22.34 67.5652C23.0338 67.7432 23.6779 67.9113 24.2725 68.0667C29.046 69.3134 31.6755 70 38.0707 70H52.7734C55.7889 70 58.2422 67.5467 58.2422 64.5312C58.2422 63.4069 57.9008 62.361 57.3166 61.4909C59.4286 60.7522 60.9766 58.7342 60.9766 56.3281C60.9766 55.2079 60.6435 54.1585 60.0611 53.2845C62.1638 52.5446 63.7109 50.5313 63.7109 48.125C63.7109 47.0006 63.3696 45.9547 62.7854 45.0846C64.8974 44.346 66.4453 42.328 66.4453 39.9219ZM19.9609 65.8984C19.9609 66.6523 19.3476 67.2656 18.5938 67.2656H6.28906V37.1875H18.5938C19.3476 37.1875 19.9609 37.8008 19.9609 38.5547V65.8984ZM60.9766 42.6562C58.0441 42.6562 57.345 42.6562 54.1406 42.6562C53.3857 42.6562 52.7734 43.2685 52.7734 44.0234C52.7734 44.7784 53.3857 45.3906 54.1406 45.3906H58.2422C59.7499 45.3906 60.9766 46.6173 60.9766 48.125C60.9766 49.6352 59.7524 50.8594 58.2422 50.8594H51.4062C50.6513 50.8594 50.0391 51.4716 50.0391 52.2266C50.0391 52.9815 50.6513 53.5938 51.4062 53.5938H55.5078C56.9976 53.5938 58.2422 54.7839 58.2422 56.3281C58.2422 57.8383 57.018 59.0625 55.5078 59.0625C52.5753 59.0625 51.8763 59.0625 48.6719 59.0625C47.9169 59.0625 47.3047 59.6747 47.3047 60.4297C47.3047 61.1846 47.9169 61.7969 48.6719 61.7969H52.7734C54.2812 61.7969 55.5078 63.0235 55.5078 64.5312C55.5078 66.039 54.2812 67.2656 52.7734 67.2656H38.0707C32.0268 67.2656 29.6662 66.6492 24.9635 65.421C24.2746 65.2411 23.5189 65.0438 22.6953 64.8338V39.6519C32.5894 37.2951 44.5703 31.5425 44.5703 21.3281V19.9609C44.5703 18.4532 45.797 17.2266 47.3047 17.2266C48.8097 17.2266 50.0362 18.4513 50.0391 19.9567V19.9609C50.0391 20.5551 50.7806 27.8473 47.807 34.4531H43.2031C42.4482 34.4531 41.8359 35.0654 41.8359 35.8203C41.8359 36.5753 42.4482 37.1875 43.2031 37.1875C44.1578 37.1875 59.4182 37.1875 60.9766 37.1875C62.4843 37.1875 63.7109 38.4141 63.7109 39.9219C63.7109 41.4321 62.4868 42.6562 60.9766 42.6562Z" fill="white"/>
<path d="M15.8594 48.125C15.1044 48.125 14.4922 48.7372 14.4922 49.4922V60.4297C14.4922 61.1846 15.1044 61.7969 15.8594 61.7969C16.6143 61.7969 17.2266 61.1846 17.2266 60.4297V49.4922C17.2266 48.7372 16.6143 48.125 15.8594 48.125Z" fill="white"/>
<path d="M36.3672 17.2266H30.8984C30.1435 17.2266 29.5312 17.8388 29.5312 18.5938C29.5312 19.3487 30.1435 19.9609 30.8984 19.9609H36.3672C37.1221 19.9609 37.7344 19.3487 37.7344 18.5938C37.7344 17.8388 37.1221 17.2266 36.3672 17.2266Z" fill="white"/>
<path d="M63.7109 17.2266H58.2422C57.4872 17.2266 56.875 17.8388 56.875 18.5938C56.875 19.3487 57.4872 19.9609 58.2422 19.9609H63.7109C64.4659 19.9609 65.0781 19.3487 65.0781 18.5938C65.0781 17.8388 64.4659 17.2266 63.7109 17.2266Z" fill="white"/>
<path d="M59.872 6.02641C59.3379 5.49266 58.4725 5.49266 57.9384 6.02641L54.0721 9.89268C53.5382 10.4266 53.5382 11.2923 54.0721 11.8263C54.6062 12.3602 55.4715 12.36 56.0057 11.8263L59.872 7.96002C60.4059 7.42614 60.4059 6.56043 59.872 6.02641Z" fill="white"/>
<path d="M40.5371 9.89268L36.6708 6.02641C36.1368 5.49266 35.2714 5.49266 34.7372 6.02641C34.2034 6.5603 34.2034 7.426 34.7372 7.96002L38.6035 11.8263C39.1378 12.3602 40.0031 12.36 40.5371 11.8263C41.071 11.2924 41.071 10.4267 40.5371 9.89268Z" fill="white"/>
</svg>

<svg width="70" height="70" fill="none" xmlns="http://www.w3.org/2000/svg"><path d="M47.305 0c-.755 0-1.367.612-1.367 1.367v6.29a1.367 1.367 0 002.734 0v-6.29C48.672.612 48.06 0 47.305 0zM15.86 42.656a1.368 1.368 0 100 2.736 1.368 1.368 0 000-2.736z" fill="#fff"/><path d="M66.445 39.922a5.475 5.475 0 00-5.468-5.469H50.77c1.58-4.047 2.22-8.811 2.096-13.052-.023-.809-.054-1.277-.096-1.571a5.476 5.476 0 00-5.465-5.338 5.475 5.475 0 00-5.47 5.469v1.367c0 8.647-11.102 13.505-19.482 15.589a4.107 4.107 0 00-3.76-2.464H4.923c-.755 0-1.367.612-1.367 1.367v32.813c0 .755.612 1.367 1.367 1.367h13.672a4.106 4.106 0 003.746-2.435c.694.178 1.338.346 1.933.502C29.046 69.313 31.675 70 38.07 70h14.702a5.475 5.475 0 005.47-5.469c0-1.124-.342-2.17-.926-3.04a5.47 5.47 0 003.66-5.163 5.47 5.47 0 00-.916-3.044 5.47 5.47 0 002.724-8.2 5.47 5.47 0 003.66-5.162zM19.961 65.898a1.37 1.37 0 01-1.367 1.368H6.289V37.187h12.305a1.37 1.37 0 011.367 1.368v27.343zm41.016-23.242H54.14a1.367 1.367 0 000 2.735h4.101a2.734 2.734 0 110 5.469h-6.836a1.367 1.367 0 000 2.734h4.102c1.49 0 2.734 1.19 2.734 2.734a2.734 2.734 0 01-2.734 2.734h-6.836a1.367 1.367 0 000 2.735h4.101a2.737 2.737 0 012.735 2.734 2.737 2.737 0 01-2.735 2.735H38.071c-6.044 0-8.405-.617-13.107-1.845-.69-.18-1.445-.377-2.269-.587V39.652c9.894-2.357 21.875-8.11 21.875-18.324v-1.367a2.737 2.737 0 012.735-2.734 2.739 2.739 0 012.734 2.73v.004c0 .594.742 7.886-2.232 14.492h-4.604a1.367 1.367 0 000 2.734h17.774a2.734 2.734 0 110 5.469z" fill="#fff"/><path d="M15.86 48.125c-.756 0-1.368.612-1.368 1.367V60.43a1.367 1.367 0 002.735 0V49.492c0-.755-.613-1.367-1.368-1.367zm20.507-30.898h-5.469a1.367 1.367 0 000 2.734h5.47a1.367 1.367 0 000-2.734zm27.343 0h-5.468a1.367 1.367 0 000 2.734h5.469a1.367 1.367 0 000-2.734zM59.872 6.026a1.368 1.368 0 00-1.934 0l-3.866 3.867a1.367 1.367 0 001.934 1.933l3.866-3.866c.534-.534.534-1.4 0-1.934zM40.537 9.893l-3.866-3.867a1.368 1.368 0 00-1.934 1.934l3.866 3.866a1.368 1.368 0 001.934-1.933z" fill="#fff"/></svg>
